packages/icon/src/svg/lock.icon.svg

<?xml version="1.0" encoding="UTF-8"?>
<svg width="24px" height="24px" viewBox="0 0 24 24" version="1.1" xmlns="http://www.w3.org/2000/svg" xmlns:xlink="http://www.w3.org/1999/xlink">
    <!-- Generator: Sketch 46.1 (44463) - http://www.bohemiancoding.com/sketch -->
    <title>Icon/lock.icon</title>
    <desc>Created with Sketch.</desc>
    <defs>
        <path d="M13.5,15.5005 C13.5,16.3285 12.828,17.0005 12,17.0005 C11.172,17.0005 10.5,16.3285 10.5,15.5005 C10.5,14.6725 11.172,14.0005 12,14.0005 C12.828,14.0005 13.5,14.6725 13.5,15.5005 M17,8.0005 L17,10.0005 C18.103,10.0005 19,10.8965 19,12.0005 L19,19.0005 C19,20.1035 18.103,21.0005 17,21.0005 L7,21.0005 C5.897,21.0005 5,20.1035 5,19.0005 L5,12.0005 C5,10.8965 5.897,10.0005 7,10.0005 L7,8.0005 C7,5.2435 9.243,3.0005 12,3.0005 C14.757,3.0005 17,5.2435 17,8.0005 Z M7,19.0005 L17.001,19.0005 L17,12.0005 L7,12.0005 L7,19.0005 Z M9,8.0005 L9,10.0005 L15,10.0005 L15,8.0005 C15,6.3465 13.654,5.0005 12,5.0005 C10.346,5.0005 9,6.3465 9,8.0005 Z" id="path-1"></path>
    </defs>
    <g id="Symbols" stroke="none" stroke-width="1" fill="none" fill-rule="evenodd">
        <g id="Icon/lock">
            <mask id="mask-2" fill="white">
                <use xlink:href="#path-1"></use>
            </mask>
            <use id="Fill-213" fill="#000000" xlink:href="#path-1"></use>
            <g id="Color/Neutral/White" mask="url(#mask-2)" fill="#FFFFFF">
                <rect id="222222-Fill" x="0" y="0" width="24" height="24"></rect>
            </g>
        </g>
    </g>
</svg>

<svg viewBox="0 0 24 24" xmlns="http://www.w3.org/2000/svg"><path d="M13.5 15.5005c0 .828-.672 1.5-1.5 1.5s-1.5-.672-1.5-1.5.672-1.5 1.5-1.5 1.5.672 1.5 1.5m3.5-7.5v2c1.103 0 2 .896 2 2v7c0 1.103-.897 2-2 2H7c-1.103 0-2-.897-2-2v-7c0-1.104.897-2 2-2v-2c0-2.757 2.243-5 5-5s5 2.243 5 5zm-10 11h10.001l-.001-7H7v7zm2-11v2h6v-2c0-1.654-1.346-3-3-3s-3 1.346-3 3z" /></svg>
